X: 1742
T: BACK OF THE HAGGARD
M:2/4
L:1/16
B:O'NEILL'S 1742
N:"collected by F. O'Neill
Z:Transcribed by A.LEE WORMAN
K:D
(3A-B-c|dfdf ecAc|dcdB AFDF|GFGB Afed|c2A2 A2(Bc)|
d>A (3AAA e>A (3AAA)|fefg afdc|BdcB AGFE|D2D2 D2:|
|:(3A-B-c|dcdA FADF|.B(GFG) .B(GFG)|gefd ecdB|cdec dcBc|
A>d (3ddd c>e (3eee|d>f (3fff e>g (3ggg|fafd egec|d2d2 d2:||


